src/distro-icons/nixos.svg

<svg width="512" height="512" fill="none" xmlns="http://www.w3.org/2000/svg">
<circle cx="256" cy="256" r="256" fill="#fff"/>
<path fill-rule="evenodd" clip-rule="evenodd" d="m162.443 261.346 116.911 202.567-53.728.504-31.212-54.422-31.435 54.131-26.696-.01-13.672-23.627 44.785-77.027-31.792-55.338 26.839-46.778Z" fill="#5277C3"/>
<path fill-rule="evenodd" clip-rule="evenodd" d="M204.641 177.906 87.711 380.462l-27.3-46.289 31.513-54.248-62.586-.165L16 256.631l13.62-23.658 89.084.282 32.017-55.209 53.92-.14Zm8.97 161.92 233.842.012-26.428 46.793-62.726-.174 31.151 54.296-13.357 23.119-27.294.03-44.298-77.308-63.808-.129-27.082-46.639Zm136.104-88.755L232.805 48.504 286.532 48l31.213 54.422 31.435-54.131 26.695.01 13.673 23.628-44.786 77.027 31.792 55.337-26.839 46.778Z" fill="#7EBAE4"/>
<path fill-rule="evenodd" clip-rule="evenodd" d="m162.443 261.346 116.911 202.567-53.728.504-31.212-54.422-31.435 54.131-26.696-.01-13.672-23.627 44.785-77.027-31.792-55.338 26.839-46.778Zm135.793-89.267-233.841-.011 26.427-46.793 62.726.173-31.15-54.295 13.357-23.12 27.293-.03 44.299 77.309 63.808.129 27.081 46.638Zm9.123 162.389 116.93-202.556 27.301 46.289-31.514 54.248 62.586.165L496 255.743l-13.62 23.658-89.084-.281-32.016 55.208-53.921.14Z" fill="#5277C3"/>
<path fill-rule="evenodd" clip-rule="evenodd" d="m162.582 261.216 116.911 202.567-53.728.504-31.212-54.422-31.435 54.131-26.696-.01-13.672-23.628 44.785-77.027-31.792-55.337 26.839-46.778Z" fill="url(#a)"/>
<path fill-rule="evenodd" clip-rule="evenodd" d="m162.582 261.216 116.911 202.567-53.728.504-31.212-54.422-31.435 54.131-26.696-.01-13.672-23.628 44.785-77.027-31.792-55.337 26.839-46.778Z" fill="url(#b)"/>
<defs>
<linearGradient id="a" x1="125.937" y1="267.578" x2="211.587" y2="415.677" gradientUnits="userSpaceOnUse">
<stop stop-color="#699AD7"/>
<stop offset=".243" stop-color="#7EB1DD"/>
<stop offset="1" stop-color="#7EBAE4"/>
</linearGradient>
<linearGradient id="b" x1="134.786" y1="262.539" x2="218.917" y2="411.215" gradientUnits="userSpaceOnUse">
<stop stop-color="#415E9A"/>
<stop offset=".232" stop-color="#4A6BAF"/>
<stop offset="1" stop-color="#5277C3"/>
</linearGradient>
</defs>
</svg>

<svg width="512" height="512" viewBox="0 0 512 512" fill="none" xmlns="http://www.w3.org/2000/svg">
<circle cx="256" cy="256" r="256" fill="white"/>
<path fill-rule="evenodd" clip-rule="evenodd" d="M162.443 261.346L279.354 463.913L225.626 464.417L194.414 409.995L162.979 464.126L136.283 464.116L122.611 440.489L167.396 363.462L135.604 308.124L162.443 261.346Z" fill="#5277C3"/>
<path fill-rule="evenodd" clip-rule="evenodd" d="M204.641 177.906L87.7106 380.462L60.4102 334.173L91.9237 279.925L29.3383 279.76L16 256.631L29.6205 232.973L118.704 233.255L150.721 178.046L204.641 177.906Z" fill="#7EBAE4"/>
<path fill-rule="evenodd" clip-rule="evenodd" d="M213.611 339.826L447.453 339.838L421.025 386.631L358.299 386.457L389.45 440.753L376.093 463.872L348.799 463.902L304.501 386.594L240.693 386.465L213.611 339.826Z" fill="#7EBAE4"/>
<path fill-rule="evenodd" clip-rule="evenodd" d="M349.715 251.071L232.805 48.5041L286.532 48L317.745 102.422L349.18 48.2908L375.875 48.3013L389.548 71.9286L344.762 148.956L376.554 204.293L349.715 251.071Z" fill="#7EBAE4"/>
<path fill-rule="evenodd" clip-rule="evenodd" d="M162.443 261.346L279.354 463.913L225.626 464.417L194.414 409.995L162.979 464.126L136.283 464.116L122.611 440.489L167.396 363.462L135.604 308.124L162.443 261.346Z" fill="#5277C3"/>
<path fill-rule="evenodd" clip-rule="evenodd" d="M298.236 172.079L64.395 172.068L90.8224 125.275L153.548 125.448L122.398 71.1526L135.755 48.0336L163.048 48.0034L207.347 125.312L271.155 125.441L298.236 172.079Z" fill="#5277C3"/>
<path fill-rule="evenodd" clip-rule="evenodd" d="M307.359 334.468L424.289 131.912L451.59 178.201L420.076 232.449L482.662 232.614L496 255.743L482.38 279.401L393.296 279.12L361.28 334.328L307.359 334.468Z" fill="#5277C3"/>
<path fill-rule="evenodd" clip-rule="evenodd" d="M162.582 261.216L279.493 463.783L225.765 464.287L194.553 409.865L163.118 463.996L136.422 463.986L122.75 440.358L167.535 363.331L135.743 307.994L162.582 261.216Z" fill="url(#paint0_linear_2_234)"/>
<path fill-rule="evenodd" clip-rule="evenodd" d="M162.582 261.216L279.493 463.783L225.765 464.287L194.553 409.865L163.118 463.996L136.422 463.986L122.75 440.358L167.535 363.331L135.743 307.994L162.582 261.216Z" fill="url(#paint1_linear_2_234)"/>
<defs>
<linearGradient id="paint0_linear_2_234" x1="125.937" y1="267.578" x2="211.587" y2="415.677" gradientUnits="userSpaceOnUse">
<stop stop-color="#699AD7"/>
<stop offset="0.243452" stop-color="#7EB1DD"/>
<stop offset="1" stop-color="#7EBAE4"/>
</linearGradient>
<linearGradient id="paint1_linear_2_234" x1="134.786" y1="262.539" x2="218.917" y2="411.215" gradientUnits="userSpaceOnUse">
<stop stop-color="#415E9A"/>
<stop offset="0.231686" stop-color="#4A6BAF"/>
<stop offset="1" stop-color="#5277C3"/>
</linearGradient>
</defs>
</svg>
